X: 528
T:Yes Siretsi
O:Armenia
F: http://www.youtube.com/watch?v=UQlzqZjC6Jo
M:3/4
L:1/8
Q:1/4=111
K:Edor 
%%MIDI program 42
%%MIDI drum dzdzdz 43 43 43 80 50 50
%%MIDI drumon
|:CDE4-|EGFG E2|\
CD E2E2|DB,3z2|
 {A}A2 AB G2|B A4-A|\
G A3 F2-|F E3 z2:|
|:B6  |B=c AG B2-|\
BGA4|AB GF A2|\
GF FE Ez|[1E2 FG AB:|[2E4z2| 



